build/img/SVG/refresh.svg

<?xml version="1.0" encoding="utf-8"?>
<!-- Generated by IcoMoon.io -->
<!DOCTYPE svg PUBLIC "-//W3C//DTD SVG 1.1//EN" "http://www.w3.org/Graphics/SVG/1.1/DTD/svg11.dtd">
<svg version="1.1" xmlns="http://www.w3.org/2000/svg" xmlns:xlink="http://www.w3.org/1999/xlink" width="48" height="56" viewBox="0 0 48 56">
<path fill="#444444" d="M47.219 33q0 0.156-0.031 0.219-2 8.375-8.375 13.578t-14.938 5.203q-4.563 0-8.828-1.719t-7.609-4.906l-4.031 4.031q-0.594 0.594-1.406 0.594t-1.406-0.594-0.594-1.406v-14q0-0.812 0.594-1.406t1.406-0.594h14q0.812 0 1.406 0.594t0.594 1.406-0.594 1.406l-4.281 4.281q2.219 2.062 5.031 3.188t5.844 1.125q4.187 0 7.812-2.031t5.813-5.594q0.344-0.531 1.656-3.656 0.25-0.719 0.938-0.719h6q0.406 0 0.703 0.297t0.297 0.703zM48 8v14q0 0.812-0.594 1.406t-1.406 0.594h-14q-0.812 0-1.406-0.594t-0.594-1.406 0.594-1.406l4.312-4.312q-4.625-4.281-10.906-4.281-4.187 0-7.812 2.031t-5.813 5.594q-0.344 0.531-1.656 3.656-0.25 0.719-0.938 0.719h-6.219q-0.406 0-0.703-0.297t-0.297-0.703v-0.219q2.031-8.375 8.438-13.578t15-5.203q4.563 0 8.875 1.734t7.656 4.891l4.063-4.031q0.594-0.594 1.406-0.594t1.406 0.594 0.594 1.406z"></path>
</svg>

<svg xmlns="http://www.w3.org/2000/svg" width="48" height="56" viewBox="0 0 48 56"><path fill="#444" d="M47.22 33q0 .156-.032.22-2 8.374-8.375 13.577T23.875 52q-4.563 0-8.828-1.72t-7.61-4.905l-4.03 4.03Q2.813 50 2 50t-1.405-.594T0 48V34q0-.812.595-1.406T2 32h14q.813 0 1.407.594T18 34t-.593 1.406l-4.28 4.28q2.218 2.063 5.03 3.19T24 44q4.188 0 7.813-2.03t5.813-5.595q.344-.53 1.656-3.656.25-.72.938-.72h6q.406 0 .703.297t.297.703zM48 8v14q0 .812-.594 1.406T46 24H32q-.812 0-1.406-.594T30 22t.594-1.406l4.312-4.312Q30.28 12.002 24 12.002q-4.187 0-7.812 2.03t-5.813 5.594q-.344.53-1.656 3.656-.25.72-.94.72H1.563q-.406 0-.703-.298T.56 23v-.218Q2.592 14.407 9 9.204T24 4q4.563 0 8.875 1.735t7.656 4.89l4.064-4.03Q45.188 6 46 6t1.406.595T48 8z"/></svg>
